X:0
T:Isolation Jig
C:Copyright 2020 Stephan Deibel
K:G
L:1/8
M:6/8
D2|:"G"GFG G,2D|"C"GFG A2B|"Am"cBA GFG|"D"AFE D2D|
"G"GFG G,2D|"C"GFG A2B|"Am"cBA "D"GBA||1"G"G3G2D:|2"G"G3B2c|
"G"dBd g2f|"C"ede d2B|"Am"cBA GFG|"D"AFE D2B|
"G"dBd g2f|"C"ede d2B|"Am"cBA "D"GBA|G3 "G"B2c|
"G"dBd g2f|"C"ede d2B|"Am"cBA GFG|"D"AFE D2D|
"G"GFG G,2D|"C"GFG A2B|"Am"cBA "D"GBA|"G"G3G3|
